src/sources/forus-platform/resources/_platform-common/assets/img/menu/icon-provider-overview-hover.svg

<svg width="45" height="45" viewBox="0 0 45 45" fill="none" xmlns="http://www.w3.org/2000/svg">
<g clip-path="url(#clip0)">
<path d="M32.3961 20.25H20.9377C20.0531 20.25 19.3336 20.9696 19.3336 21.8542V32.3958C19.3336 33.2804 20.0531 34 20.9377 34H32.3961C33.2806 34 34.0002 33.2804 34.0002 32.3958V21.8542C34.0002 20.9696 33.2806 20.25 32.3961 20.25Z" fill="#2987FD"/>
<path d="M32.3958 12H13.6042C12.7196 12 12 12.7196 12 13.6042V15.8958C12 16.7804 12.7196 17.5 13.6042 17.5H32.3958C33.2804 17.5 34 16.7804 34 15.8958V13.6042C34 12.7196 33.2804 12 32.3958 12Z" fill="#134478"/>
<path d="M14.75 25.75C16.2688 25.75 17.5 24.5188 17.5 23C17.5 21.4812 16.2688 20.25 14.75 20.25C13.2312 20.25 12 21.4812 12 23C12 24.5188 13.2312 25.75 14.75 25.75Z" fill="#134478"/>
<path d="M14.75 34C16.2688 34 17.5 32.7688 17.5 31.25C17.5 29.7312 16.2688 28.5 14.75 28.5C13.2312 28.5 12 29.7312 12 31.25C12 32.7688 13.2312 34 14.75 34Z" fill="#134478"/>
</g>
<defs>
<clipPath id="clip0">
<rect width="22" height="22" fill="white" transform="translate(12 12)"/>
</clipPath>
</defs>
</svg>

<svg width="45" height="45" fill="none" xmlns="http://www.w3.org/2000/svg"><g clip-path="url(#prefix__clip0)"><path d="M32.396 20.25H20.938c-.885 0-1.604.72-1.604 1.604v10.542c0 .884.72 1.604 1.604 1.604h11.458c.885 0 1.604-.72 1.604-1.604V21.854c0-.884-.72-1.604-1.604-1.604z" fill="#2987FD"/><path d="M32.396 12H13.604C12.72 12 12 12.72 12 13.604v2.292c0 .884.72 1.604 1.604 1.604h18.792c.884 0 1.604-.72 1.604-1.604v-2.292C34 12.72 33.28 12 32.396 12zM14.75 25.75a2.75 2.75 0 100-5.5 2.75 2.75 0 000 5.5zM14.75 34a2.75 2.75 0 100-5.5 2.75 2.75 0 000 5.5z" fill="#134478"/></g><defs><clipPath id="prefix__clip0"><path fill="#fff" transform="translate(12 12)" d="M0 0h22v22H0z"/></clipPath></defs></svg>
